Newaita-dark/apps/32/sublime-merge.svg

<svg height="32" viewBox="0 0 32 32" width="32" xmlns="http://www.w3.org/2000/svg" xmlns:xlink="http://www.w3.org/1999/xlink"><linearGradient id="a" gradientUnits="userSpaceOnUse" x1="15.87652" x2="15.87652" y1="28.033936" y2="29.35698000003"><stop offset="0" stop-opacity=".27451"/><stop offset="1" stop-opacity="0"/></linearGradient><linearGradient id="b"><stop offset="0" stop-opacity=".313726"/><stop offset=".222222" stop-opacity=".27451"/><stop offset="1" stop-opacity="0"/></linearGradient><radialGradient id="c" cx="450.908936" cy="189.579361" gradientTransform="matrix(.00000017 -.0781325 -.140638 -.0000001 52.130648 63.595333)" gradientUnits="userSpaceOnUse" r="21.166656" xlink:href="#b"/><radialGradient id="d" cx="450.908936" cy="189.579361" gradientTransform="matrix(-.00000017 .0781325 .140638 .0000001 -20.377613 -7.527479)" gradientUnits="userSpaceOnUse" r="21.166656" xlink:href="#b"/><radialGradient id="e" cx="450.908936" cy="189.579361" gradientTransform="matrix(-.00000017 -.0781325 .140638 -.0000001 -20.377613 63.595333)" gradientUnits="userSpaceOnUse" r="21.166656" xlink:href="#b"/><radialGradient id="f" cx="450.908936" cy="189.579361" gradientTransform="matrix(.00000017 .0781325 -.140638 .0000001 52.130646 -7.527479)" gradientUnits="userSpaceOnUse" r="21.166656" xlink:href="#b"/><linearGradient id="g" gradientUnits="userSpaceOnUse" x1="10.58434899997" x2="10.58434899997" y1="28.033934" y2="2.89610500006"><stop offset="0" stop-color="#424242"/><stop offset="1" stop-color="#616161"/></linearGradient><linearGradient id="h" gradientUnits="userSpaceOnUse" x1="15.87652306241" x2="15.876524" y1="28.033934" y2="2.89610500006"><stop offset="0" stop-color="#26c6da"/><stop offset="1" stop-color="#4dd0e1"/></linearGradient><linearGradient id="i" gradientTransform="matrix(.062506 0 0 -.062506 0 17.492311)" gradientUnits="userSpaceOnUse" x1="253.999985" x2="254" y1="233.5" y2="-168.666656"><stop offset="0" stop-color="#b2ebf2"/><stop offset="1" stop-color="#80deea"/></linearGradient><path d="m5.953125 27.9375h19.847656v1.46875h-19.847656zm0 0" fill="url(#a)"/><path d="m25.800781 28.035156h2.644531v-1.324218h-2.644531zm0 0" fill="url(#c)"/><path d="m5.953125 28.035156h-2.644531v1.320313h2.644531zm0 0" fill="url(#d)"/><path d="m5.953125 28.035156h-2.644531v-1.324218h2.644531zm0 0" fill="url(#e)"/><path d="m25.800781 28.035156h2.644531v1.320313h-2.644531zm0 0" fill="url(#f)"/><path d="m4.628906 2.894531h22.492188c.730468 0 1.324218.59375 1.324218 1.324219v22.492188c0 .730468-.59375 1.324218-1.324218 1.324218h-22.492188c-.730468 0-1.320312-.59375-1.320312-1.324218v-22.492188c0-.730469.589844-1.324219 1.320312-1.324219zm0 0" fill="url(#g)"/><path d="m8.632812 12.363281c-.089843.269531.003907.578125.25.75l3.953126 2.765625 2.660156-1.863281c.113281-.078125.246094-.121094.378906-.121094h.539062l-.582031-.414062c-.121093.011719-.234375.050781-.335937.121093l-2.660156 1.863282-3.953126-2.765625c-.121093-.085938-.207031-.203125-.25-.335938zm0 0" fill-opacity=".235294"/><path d="m4.628906 2.894531c-.730468 0-1.320312.589844-1.320312 1.324219v.164062c0-.730468.589844-1.324218 1.320312-1.320312h22.492188c.734375-.003906 1.324218.589844 1.324218 1.320312v-.164062c0-.734375-.589843-1.324219-1.324218-1.324219zm0 0" fill="#e6e6e6" fill-opacity=".392157"/><path d="m4.628906 28.035156c-.730468 0-1.320312-.589844-1.320312-1.324218v-.164063c0 .730469.589844 1.320313 1.320312 1.320313h22.492188c.734375 0 1.324218-.589844 1.324218-1.320313v.164063c0 .734374-.589843 1.324218-1.324218 1.324218zm0 0" fill-opacity=".196078"/><path d="m74.055428-168.691922h359.840637c11.686384 0 21.185477 9.499093 21.185477 21.185477v359.840637c0 11.686384-9.499093 21.185477-21.185477 21.185477h-359.840637c-11.686384 0-21.122983-9.499093-21.122983-21.185477v-359.840637c0-11.686384 9.436599-21.185477 21.122983-21.185477zm0 0" fill="none" stroke="#212121" stroke-linecap="round" stroke-width="3" transform="matrix(.062506 0 0 .062506 0 13.438783)"/><path d="m15.875 13.480469c-.132812 0-.265625.042969-.378906.121093l-6.613282 4.628907c-.292968.207031-.371093.609375-.171874.910156l1.324218 1.984375c.207032.308594.625.386719.929688.171875l5.453125-3.847656h4.75c.175781 0 .34375-.070313.46875-.195313l1.320312-1.320312c.257813-.257813.257813-.675782 0-.9375l-1.320312-1.320313c-.125-.125-.292969-.195312-.46875-.195312zm0 0" fill="url(#h)"/><path d="m10.589844 9.511719c-.214844 0-.425782.101562-.554688.296875l-1.324218 1.984375c-.199219.296875-.121094.699219.171874.90625l3.953126 2.765625 2.660156-1.863282c.113281-.078124.246094-.121093.378906-.121093h.539062l-5.449218-3.847657c-.113282-.078124-.242188-.117187-.375-.121093zm0 0" fill="url(#i)"/><path d="m15.875 13.480469c-.132812 0-.265625.042969-.378906.121093l-6.613282 4.628907c-.230468.164062-.328124.449219-.261718.707031.039062-.148438.128906-.28125.261718-.375l6.613282-4.632812c.113281-.078126.246094-.117188.378906-.117188h5.292969c.175781 0 .34375.066406.46875.191406l1.320312 1.324219c.089844.085937.144531.191406.175781.300781.054688-.21875-.003906-.460937-.175781-.632812l-1.320312-1.320313c-.125-.125-.292969-.195312-.46875-.195312zm0 0" fill="#fff" fill-opacity=".392157"/><path d="m23.105469 15.714844c-.035157.078125-.082031.152344-.148438.21875l-1.320312 1.324218c-.125.121094-.292969.191407-.46875.191407h-4.75l-5.453125 3.847656c-.304688.214844-.722656.136719-.929688-.171875l-1.324218-1.984375c-.023438-.039063-.046876-.078125-.0625-.117187-.078126.195312-.0625.425781.0625.613281l1.324218 1.984375c.207032.308594.625.386718.929688.171875l5.453125-3.847657h4.75c.175781 0 .34375-.070312.46875-.191406l1.320312-1.324218c.195313-.195313.242188-.476563.148438-.714844zm0 0" fill-opacity=".235294"/><path d="m10.589844 9.511719c-.214844 0-.425782.101562-.554688.296875l-1.324218 1.984375c-.105469.160156-.132813.355469-.089844.53125.019531-.070313.046875-.140625.089844-.203125l1.324218-1.984375c.128906-.195313.339844-.296875.554688-.292969.132812 0 .261718.039062.375.121094l4.984375 3.515625h.464843l-5.449218-3.847657c-.113282-.078124-.242188-.117187-.375-.121093zm0 0" fill="#fff" fill-opacity=".392157"/><g fill="none" stroke="#212121" stroke-linecap="round" stroke-linejoin="round"><path d="m253.975747.666905c-2.124798 0-4.249595.687434-6.061922 1.937315l-105.802396 74.055428c-4.687052 3.312184-5.936933 9.749069-2.749737 14.561109l21.185477 31.746969c3.312183 4.937028 9.999045 6.186909 14.873579 2.749737l87.241669-61.556622h75.992743c2.812231 0 5.499475-1.124892 7.499284-3.124701l21.122983-21.122983c4.124606-4.124606 4.124606-10.811468 0-14.998568l-21.122983-21.122983c-1.999809-1.999809-4.687053-3.124701-7.499284-3.124701zm0 0" stroke-width="3" transform="matrix(.062506 0 0 .062506 0 13.438783)"/><path d="m640.332586 575.141957c-12.990886 0-25.745575 6.141146-33.540106 17.951043l-80.071098 119.988548c-12.046095 17.951043-7.322136 42.279429 10.392709 54.797919l239.032304 167.228134 160.85079-112.666412c6.84974-4.723959 14.880469-7.322136 22.911199-7.322136h32.595314l-329.496111-232.65496c-6.84974-4.723958-14.644272-7.085938-22.675001-7.322136zm0 0" stroke-width="11.338583" transform="scale(.016538)"/></g></svg>

<?xml version="1.0" encoding="UTF-8"?>
<svg xmlns="http://www.w3.org/2000/svg" xmlns:xlink="http://www.w3.org/1999/xlink" width="32px" height="32px" viewBox="0 0 32 32" version="1.1">
<defs>
<linearGradient id="linear0" gradientUnits="userSpaceOnUse" x1="254" y1="233.5" x2="254" y2="254.666672" gradientTransform="matrix(0.062506,0,0,0.062506,-0.00000381506,13.438785)">
<stop offset="0" style="stop-color:rgb(0%,0%,0%);stop-opacity:0.27451;"/>
<stop offset="1" style="stop-color:rgb(0%,0%,0%);stop-opacity:0;"/>
</linearGradient>
<radialGradient id="radial0" gradientUnits="userSpaceOnUse" cx="450.908936" cy="189.579361" fx="450.908936" fy="189.579361" r="21.166656" gradientTransform="matrix(0.00000017417,-0.0781325,-0.140638,-0.000000101539,52.130648,63.595333)">
<stop offset="0" style="stop-color:rgb(0%,0%,0%);stop-opacity:0.313726;"/>
<stop offset="0.222222" style="stop-color:rgb(0%,0%,0%);stop-opacity:0.27451;"/>
<stop offset="1" style="stop-color:rgb(0%,0%,0%);stop-opacity:0;"/>
</radialGradient>
<radialGradient id="radial1" gradientUnits="userSpaceOnUse" cx="450.908936" cy="189.579361" fx="450.908936" fy="189.579361" r="21.166656" gradientTransform="matrix(-0.00000017417,0.0781325,0.140638,0.000000101539,-20.377613,-7.527479)">
<stop offset="0" style="stop-color:rgb(0%,0%,0%);stop-opacity:0.313726;"/>
<stop offset="0.222222" style="stop-color:rgb(0%,0%,0%);stop-opacity:0.27451;"/>
<stop offset="1" style="stop-color:rgb(0%,0%,0%);stop-opacity:0;"/>
</radialGradient>
<radialGradient id="radial2" gradientUnits="userSpaceOnUse" cx="450.908936" cy="189.579361" fx="450.908936" fy="189.579361" r="21.166656" gradientTransform="matrix(-0.00000017417,-0.0781325,0.140638,-0.000000101539,-20.377613,63.595333)">
<stop offset="0" style="stop-color:rgb(0%,0%,0%);stop-opacity:0.313726;"/>
<stop offset="0.222222" style="stop-color:rgb(0%,0%,0%);stop-opacity:0.27451;"/>
<stop offset="1" style="stop-color:rgb(0%,0%,0%);stop-opacity:0;"/>
</radialGradient>
<radialGradient id="radial3" gradientUnits="userSpaceOnUse" cx="450.908936" cy="189.579361" fx="450.908936" fy="189.579361" r="21.166656" gradientTransform="matrix(0.00000017417,0.0781325,-0.140638,0.000000101539,52.130646,-7.527479)">
<stop offset="0" style="stop-color:rgb(0%,0%,0%);stop-opacity:0.313726;"/>
<stop offset="0.222222" style="stop-color:rgb(0%,0%,0%);stop-opacity:0.27451;"/>
<stop offset="1" style="stop-color:rgb(0%,0%,0%);stop-opacity:0;"/>
</radialGradient>
<linearGradient id="linear1" gradientUnits="userSpaceOnUse" x1="169.333328" y1="233.5" x2="169.333328" y2="-168.666656" gradientTransform="matrix(0.062506,0,0,0.062506,0,13.438783)">
<stop offset="0" style="stop-color:rgb(25.882354%,25.882354%,25.882354%);stop-opacity:1;"/>
<stop offset="1" style="stop-color:rgb(38.039216%,38.039216%,38.039216%);stop-opacity:1;"/>
</linearGradient>
<linearGradient id="linear2" gradientUnits="userSpaceOnUse" x1="253.999985" y1="233.5" x2="254" y2="-168.666656" gradientTransform="matrix(0.062506,0,0,0.062506,0,13.438783)">
<stop offset="0" style="stop-color:rgb(14.901961%,77.64706%,85.490197%);stop-opacity:1;"/>
<stop offset="1" style="stop-color:rgb(30.19608%,81.568629%,88.235295%);stop-opacity:1;"/>
</linearGradient>
<linearGradient id="linear3" gradientUnits="userSpaceOnUse" x1="253.999985" y1="233.5" x2="254" y2="-168.666656" gradientTransform="matrix(0.062506,0,0,-0.062506,0,17.492311)">
<stop offset="0" style="stop-color:rgb(69.803923%,92.156863%,94.901961%);stop-opacity:1;"/>
<stop offset="1" style="stop-color:rgb(50.196081%,87.058824%,91.764706%);stop-opacity:1;"/>
</linearGradient>
</defs>
<g id="surface1">
<path style=" stroke:none;fill-rule:nonzero;fill:url(#linear0);" d="M 5.953125 27.9375 L 25.800781 27.9375 L 25.800781 29.40625 L 5.953125 29.40625 Z M 5.953125 27.9375 "/>
<path style=" stroke:none;fill-rule:nonzero;fill:url(#radial0);" d="M 25.800781 28.035156 L 28.445312 28.035156 L 28.445312 26.710938 L 25.800781 26.710938 Z M 25.800781 28.035156 "/>
<path style=" stroke:none;fill-rule:nonzero;fill:url(#radial1);" d="M 5.953125 28.035156 L 3.308594 28.035156 L 3.308594 29.355469 L 5.953125 29.355469 Z M 5.953125 28.035156 "/>
<path style=" stroke:none;fill-rule:nonzero;fill:url(#radial2);" d="M 5.953125 28.035156 L 3.308594 28.035156 L 3.308594 26.710938 L 5.953125 26.710938 Z M 5.953125 28.035156 "/>
<path style=" stroke:none;fill-rule:nonzero;fill:url(#radial3);" d="M 25.800781 28.035156 L 28.445312 28.035156 L 28.445312 29.355469 L 25.800781 29.355469 Z M 25.800781 28.035156 "/>
<path style=" stroke:none;fill-rule:nonzero;fill:url(#linear1);" d="M 4.628906 2.894531 L 27.121094 2.894531 C 27.851562 2.894531 28.445312 3.488281 28.445312 4.21875 L 28.445312 26.710938 C 28.445312 27.441406 27.851562 28.035156 27.121094 28.035156 L 4.628906 28.035156 C 3.898438 28.035156 3.308594 27.441406 3.308594 26.710938 L 3.308594 4.21875 C 3.308594 3.488281 3.898438 2.894531 4.628906 2.894531 Z M 4.628906 2.894531 "/>
<path style=" stroke:none;fill-rule:nonzero;fill:rgb(0%,0%,0%);fill-opacity:0.235294;" d="M 8.632812 12.363281 C 8.542969 12.632812 8.636719 12.941406 8.882812 13.113281 L 12.835938 15.878906 L 15.496094 14.015625 C 15.609375 13.9375 15.742188 13.894531 15.875 13.894531 L 16.414062 13.894531 L 15.832031 13.480469 C 15.710938 13.492188 15.597656 13.53125 15.496094 13.601562 L 12.835938 15.464844 L 8.882812 12.699219 C 8.761719 12.613281 8.675781 12.496094 8.632812 12.363281 Z M 8.632812 12.363281 "/>
<path style=" stroke:none;fill-rule:nonzero;fill:rgb(90.196079%,90.196079%,90.196079%);fill-opacity:0.392157;" d="M 4.628906 2.894531 C 3.898438 2.894531 3.308594 3.484375 3.308594 4.21875 L 3.308594 4.382812 C 3.308594 3.652344 3.898438 3.058594 4.628906 3.0625 L 27.121094 3.0625 C 27.855469 3.058594 28.445312 3.652344 28.445312 4.382812 L 28.445312 4.21875 C 28.445312 3.484375 27.855469 2.894531 27.121094 2.894531 Z M 4.628906 2.894531 "/>
<path style=" stroke:none;fill-rule:nonzero;fill:rgb(0%,0%,0%);fill-opacity:0.196078;" d="M 4.628906 28.035156 C 3.898438 28.035156 3.308594 27.445312 3.308594 26.710938 L 3.308594 26.546875 C 3.308594 27.277344 3.898438 27.867188 4.628906 27.867188 L 27.121094 27.867188 C 27.855469 27.867188 28.445312 27.277344 28.445312 26.546875 L 28.445312 26.710938 C 28.445312 27.445312 27.855469 28.035156 27.121094 28.035156 Z M 4.628906 28.035156 "/>
<path style="fill:none;stroke-width:3;stroke-linecap:round;stroke-linejoin:miter;stroke:rgb(12.941177%,12.941177%,12.941177%);stroke-opacity:1;stroke-miterlimit:4;" d="M 74.055428 -168.691922 L 433.896065 -168.691922 C 445.582449 -168.691922 455.081542 -159.192829 455.081542 -147.506445 L 455.081542 212.334192 C 455.081542 224.020576 445.582449 233.519669 433.896065 233.519669 L 74.055428 233.519669 C 62.369044 233.519669 52.932445 224.020576 52.932445 212.334192 L 52.932445 -147.506445 C 52.932445 -159.192829 62.369044 -168.691922 74.055428 -168.691922 Z M 74.055428 -168.691922 " transform="matrix(0.062506,0,0,0.062506,0,13.438783)"/>
<path style=" stroke:none;fill-rule:nonzero;fill:url(#linear2);" d="M 15.875 13.480469 C 15.742188 13.480469 15.609375 13.523438 15.496094 13.601562 L 8.882812 18.230469 C 8.589844 18.4375 8.511719 18.839844 8.710938 19.140625 L 10.035156 21.125 C 10.242188 21.433594 10.660156 21.511719 10.964844 21.296875 L 16.417969 17.449219 L 21.167969 17.449219 C 21.34375 17.449219 21.511719 17.378906 21.636719 17.253906 L 22.957031 15.933594 C 23.214844 15.675781 23.214844 15.257812 22.957031 14.996094 L 21.636719 13.675781 C 21.511719 13.550781 21.34375 13.480469 21.167969 13.480469 Z M 15.875 13.480469 "/>
<path style=" stroke:none;fill-rule:nonzero;fill:url(#linear3);" d="M 10.589844 9.511719 C 10.375 9.511719 10.164062 9.613281 10.035156 9.808594 L 8.710938 11.792969 C 8.511719 12.089844 8.589844 12.492188 8.882812 12.699219 L 12.835938 15.464844 L 15.496094 13.601562 C 15.609375 13.523438 15.742188 13.480469 15.875 13.480469 L 16.414062 13.480469 L 10.964844 9.632812 C 10.851562 9.554688 10.722656 9.515625 10.589844 9.511719 Z M 10.589844 9.511719 "/>
<path style=" stroke:none;fill-rule:nonzero;fill:rgb(100%,100%,100%);fill-opacity:0.392157;" d="M 15.875 13.480469 C 15.742188 13.480469 15.609375 13.523438 15.496094 13.601562 L 8.882812 18.230469 C 8.652344 18.394531 8.554688 18.679688 8.621094 18.9375 C 8.660156 18.789062 8.75 18.65625 8.882812 18.5625 L 15.496094 13.929688 C 15.609375 13.851562 15.742188 13.8125 15.875 13.8125 L 21.167969 13.8125 C 21.34375 13.8125 21.511719 13.878906 21.636719 14.003906 L 22.957031 15.328125 C 23.046875 15.414062 23.101562 15.519531 23.132812 15.628906 C 23.1875 15.410156 23.128906 15.167969 22.957031 14.996094 L 21.636719 13.675781 C 21.511719 13.550781 21.34375 13.480469 21.167969 13.480469 Z M 15.875 13.480469 "/>
<path style=" stroke:none;fill-rule:nonzero;fill:rgb(0%,0%,0%);fill-opacity:0.235294;" d="M 23.105469 15.714844 C 23.070312 15.792969 23.023438 15.867188 22.957031 15.933594 L 21.636719 17.257812 C 21.511719 17.378906 21.34375 17.449219 21.167969 17.449219 L 16.417969 17.449219 L 10.964844 21.296875 C 10.660156 21.511719 10.242188 21.433594 10.035156 21.125 L 8.710938 19.140625 C 8.6875 19.101562 8.664062 19.0625 8.648438 19.023438 C 8.570312 19.21875 8.585938 19.449219 8.710938 19.636719 L 10.035156 21.621094 C 10.242188 21.929688 10.660156 22.007812 10.964844 21.792969 L 16.417969 17.945312 L 21.167969 17.945312 C 21.34375 17.945312 21.511719 17.875 21.636719 17.753906 L 22.957031 16.429688 C 23.152344 16.234375 23.199219 15.953125 23.105469 15.714844 Z M 23.105469 15.714844 "/>
<path style=" stroke:none;fill-rule:nonzero;fill:rgb(100%,100%,100%);fill-opacity:0.392157;" d="M 10.589844 9.511719 C 10.375 9.511719 10.164062 9.613281 10.035156 9.808594 L 8.710938 11.792969 C 8.605469 11.953125 8.578125 12.148438 8.621094 12.324219 C 8.640625 12.253906 8.667969 12.183594 8.710938 12.121094 L 10.035156 10.136719 C 10.164062 9.941406 10.375 9.839844 10.589844 9.84375 C 10.722656 9.84375 10.851562 9.882812 10.964844 9.964844 L 15.949219 13.480469 L 16.414062 13.480469 L 10.964844 9.632812 C 10.851562 9.554688 10.722656 9.515625 10.589844 9.511719 Z M 10.589844 9.511719 "/>
<path style="fill:none;stroke-width:3;stroke-linecap:round;stroke-linejoin:round;stroke:rgb(12.941177%,12.941177%,12.941177%);stroke-opacity:1;stroke-miterlimit:4;" d="M 253.975747 0.666905 C 251.850949 0.666905 249.726152 1.354339 247.913825 2.60422 L 142.111429 76.659648 C 137.424377 79.971832 136.174496 86.408717 139.361692 91.220757 L 160.547169 122.967726 C 163.859352 127.904754 170.546214 129.154635 175.420748 125.717463 L 262.662417 64.160841 L 338.65516 64.160841 C 341.467391 64.160841 344.154635 63.035949 346.154444 61.03614 L 367.277427 39.913157 C 371.402033 35.788551 371.402033 29.101689 367.277427 24.914589 L 346.154444 3.791606 C 344.154635 1.791797 341.467391 0.666905 338.65516 0.666905 Z M 253.975747 0.666905 " transform="matrix(0.062506,0,0,0.062506,0,13.438783)"/>
<path style="fill:none;stroke-width:11.338583;stroke-linecap:round;stroke-linejoin:round;stroke:rgb(12.941177%,12.941177%,12.941177%);stroke-opacity:1;stroke-miterlimit:4;" d="M 640.332586 575.141957 C 627.3417 575.141957 614.587011 581.283103 606.79248 593.093 L 526.721382 713.081548 C 514.675287 731.032591 519.399246 755.360977 537.114091 767.879467 L 776.146395 935.107601 L 936.997185 822.441189 C 943.846925 817.71723 951.877654 815.119053 959.908384 815.119053 L 992.503698 815.119053 L 663.007587 582.464093 C 656.157847 577.740135 648.363315 575.378155 640.332586 575.141957 Z M 640.332586 575.141957 " transform="matrix(0.016538,0,0,0.016538,0,0)"/>
</g>
</svg>
